X: 12278
T: Fairy Dance, The
R: reel
M: 4/4
K: Dmajor
f2fd f2fd|gfed cde2|f2fd gfed|cABc d2d2|
f2fd f2fd|gfed cde2|f2fd gfed|cABc defg|
a2af b2ba|g2ge a2ag|f2fd gfed|cABc defg|
a2af b2ba|g2ge a2ag|f2fd gfed|cABc d2d2||

